!!!COM:	Johannes Ockeghem
!!!CDT:	~1425-1497/02/06
!!!OPR:	Missa Quinti toni
!!!ONM:	5
!!!OTL:	Agnus Dei
!!!AGN:	Mass; Agnus Dei
!!!SCT:	Ock1012e
!!!SCA:	Ock1012e
!!!voices:	3
!!!voices-OPR:	3
**kern	**kern	**kern
*staff3	*staff2	*staff1
*Ivox	*Ivox	*Ivox
*I"Contratenor	*I"Tenor	*I"Discantus
*I'Ct	*I'T	*I'D
*>[A,B,A]	*>[A,B,A]	*>[A,B,A]
*>A	*>A	*>A
*clefF4	*clefGv2	*clefG2
*k[b-]	*k[b-]	*k[b-]
*M2/1	*M2/1	*M2/1
*met(C)	*met(C)	*met(C)
=1-	=1-	=1-
!!section: Agnus Dei I/III
!!!OMD: Agnus Dei I/III
1F	0F	1.f
1D	.	.
.	.	2d/
=2	=2	=2
1BB-	1.B-	1d
2D\	.	2B-/
2C/	2A/	2c/
=3	=3	=3
1G	1B-	1d
1A	1c	1c
=4	=4	=4
2.F\	0A	2r
.	.	1f
4E\	.	.
1D	.	.
.	.	4e/
.	.	4d/
=5	=5	=5
2r	1G	1e
2G\	.	.
2D\	2A/	2f/
[2E-i\	2G/	[2g/
=6	=6	=6
4E-\]	2c\	2g/]
4D\	.	.
2BB-/	2d\	2f/
1C	2c\	2e-i/
.	[2e-\	2c/
=7	=7	=7
2r	2e-\]	1e-i
2C/	1c	.
1G	.	1d
.	2Bni\	.
=8	=8	=8
2C/	2c\	2c/
1D	2.A/	1f
.	2B-\	.
2E\	.	2g/
.	4G/	.
=9	=9	=9
2.F\	1F	1a
8E\L	.	.
8D\J	.	.
2C/	2E/	2r
[2FF/	2F/	[2a/
=10	=10	=10
2FF/]	2A/	2a/]
2GG/	2B-\	4g/
.	.	4f/
2.AA/	1c	1e
4BB-/	.	.
=11	=11	=11
1C	2A/	2r
.	2G/	1e
2E\	1c	.
2F\	.	4d/
.	.	4c/
=12	=12	=12
1D	1d	1Bni
1C	2e\	1c
.	[2c\	.
=13	=13	=13
1F	2c\]	2A/
.	2A/	2.F/
1r	2B-\	.
.	.	4G/
.	2A/	[2A/
=14	=14	=14
1FF	1F	2A/]
.	.	2F/
1C	1E	1G
=15	=15	=15
2r	1F	2F/
1D	.	2A/
.	1r	2B-/
2C/	.	[2c/
=16	=16	=16
2AA/	2E/	4c/]
.	.	8B-/L
.	.	8c/J
2BB-/	2D/	1d
2D\	2.F/	.
2E\	.	2c/
.	4G/	.
=17	=17	=17
1F	1A	2A/
.	.	2c/
1G	2r	1B-
.	2d\	.
=18	=18	=18
2r	2c\	2A/
2F\	2A/	2c/
2BB-/	2B-\	2d/
2C/	[2A/	2c/
=19	=19	=19
1D	2A/]	2.f/
.	2F/	.
.	.	4g/
2.C/	[1c	2.e/
4D\	.	4f/
=20	=20	=20
2E\	1c]	2g/
2F\	.	2a/
2C/	1c	2g/
[2FF/	.	[2a/
=21	=21	=21
2FF/]	2F/	2a/]
2F\	2A/	2f/
2E\	2B-\	2g/
2C/	[2c\	2e/
=22	=22	=22
1G	4c\]	1d
.	4A/	.
.	2B-\	.
1A	2A/	2c/
.	[2F/	[2a/
=23	=23	=23
2F\	2F/]	2a/]
2D\	2F/	4g/
.	.	4f/
1C	1G	2.e/
.	.	8d/L
.	.	8e/J
=24	=24	=24
1D	0F	1f
1BB-	.	1r
=25	=25	=25
2AA/	1r	1a
1FF	.	.
.	1c	1a
2F\	.	.
=26	=26	=26
2G\	2B-\	2g/
2F\	2c\	1a
1D	1d	.
.	.	2b-\
=27	=27	=27
2.A\	2c\	1cc
.	1e	.
4G\	.	.
2E\	.	2g/
2D\	2f\	[2a/
=28	=28	=28
2F\	1d	2a/]
2BB-/	.	2f/
2C/	2r	1e
2AA/	2c\	.
=29	=29	=29
1GG	2d\	2r
.	2B-\	2g/
1D	1A	2a/
.	.	2f/
=30	=30	=30
1C	2r	2g/
.	2c\	2e/
2r	2d\	1d
2G\	2B-\	.
=31	=31	=31
2A\	2c\	2r
2D\	2A/	2f/
2E\	1G	2g/
2G\	.	2b-\
=32	=32	=32
1D	2r	1a
.	2d\	.
1r	2e\	2g/
.	2g\	[2b-\
=33	=33	=33
1D	1f	4b-\]
.	.	4g/
.	.	2a/
2AA/	2e\	2cc\
2GG/	[2g\	2b-\
=34	=34	=34
0C	2g\]	1g
.	4.e\	.
.	8d\	.
.	1c	2a/
.	.	[2g/
=35	=35	=35
1r	2B-\	2g/]
.	2c\	2e/
2BB-/	2.d\	2f/
2AA/	.	[2a/
.	4e\	.
=36	=36	=36
2FF/	2f\	2a/]
1C	2e\	1g
.	1c	.
2AA/	.	[2cc\
=37	=37	=37
1GG	1d	2cc\]
.	.	2bni\
1C	1c	1cc
=38	=38	=38
1F	1r	1a
2D\	1f	1r
2BB-/	.	.
=39	=39	=39
2r	2e\	1g
1C	1c	.
.	.	2e/
[2BB-/	[2d\	2d/
=40	=40	=40
4BB-/]	4d\]	2.f/
4AA/	4c\	.
2FF/	2A/	.
.	.	4g/
1F	2c\	4a/
.	.	4b-\
.	2d\	[2a/
=41	=41	=41
1G	1B-	2a/]
.	.	2g/
2r	2A/	2f/
[2C/	2G/	[2e/
=42	=42	=42
2C/]	1A	2e/]
2AA/	.	2c/
2GG/	2B-\	2.d/
2D\	[2A/	.
.	.	4B-/
=43	=43	=43
2AA/	4A/]	2c/
.	4G/	.
2.BB-/	4F/	2.d/
.	4E/	.
.	2D/	.
8AA/L	.	8c/L
8GG/J	.	8B-/J
[2FF/	[2F/	2A/
=44	=44	=44
2FF/]	4F/]	1c
.	4G/	.
2FF/	2A/	.
1GG	2r	1B-
.	2d\	.
=45	=45	=45
1AA	2c\	2A/
.	2A/	2c/
1r	2.B-\	2d/
.	.	[2f/
.	8A/L	.
.	8G/J	.
=46	=46	=46
2.D\	2F/	2f/]
.	2G/	2d/
4E\	.	.
1F	2A/	1c
.	[2c\	.
=47	=47	=47
2C/	2c\]	2r
2F\	2A/	2a/
2E\	2B-\	2g/
2C/	2c\	2e/
=48	=48	=48
2r	2d\	2f/
2GG/	2B-\	2g/
1C	2.c\	4g/
.	.	4f/
.	.	4e/
.	4B-\	4d/
=49	=49	=49
2F\	4A/	2c/
.	4G/	.
2D\	2F/	2f/
2C/	2E/	2g/
2BB-/	2D/	2b-\
=50	=50	=50
2D\	2.F/	2a/
2C/	.	1cc
.	4G/	.
2.F\	2.A/	.
.	.	2f/
8E\L	4B-\	.
8D\J	.	.
=51	=51	=51
2C/	2c\	2e/
2D\	2F/	2.f/
1C	1G	.
.	.	4d/
.	.	2e/
=52	=52	=52
0FFl	0Fl	0fl
!!LO:LB:i:g=z
=53||	=53||	=53||
*>B	*>B	*>B
*clefF4	*clefGv2	*clefG2
*k[b-]	*k[b-]	*k[b-]
*M2/1	*M2/1	*M2/1
*met(C)	*met(C)	*met(C)
!!section: Agnus Dei II
!!!OMD: Agnus Dei II
0r	[0F	1f
.	.	2f/
.	.	4g/
.	.	4a/
=54	=54	=54
0r	1F]	4b-\
.	.	4a/
.	.	4g/
.	.	4f/
.	[1c	2a/
.	.	2g/
=55	=55	=55
0r	1c]	2c/
.	.	2e/
.	1B-	2d/
.	.	2G/
=56	=56	=56
0r	1c	2A/
.	.	2.c/
.	1d	.
.	.	4Bni/
.	.	4Bni/
.	.	4A/
=57	=57	=57
0r	1c	2c/
.	.	2e/
.	1B-	2d/
.	.	[2g/
=58	=58	=58
0r	2r	4g/]
.	.	4f/
.	2B-\	1g
.	1c	.
.	.	2e/
=59	=59	=59
0r	2.B-\	2d/
.	.	2.f/
.	4c\	.
.	2d\	.
.	.	4e/
.	2e-i\	4d/
.	.	4c/
=60	=60	=60
0r	1d	1B-
.	1c	2r
.	.	[2c/
=61	=61	=61
0r	1F	2c/]
.	.	1d
.	2B-\	.
.	2c\	2c/
=62	=62	=62
0r	2.d\	2f/
.	.	2g/
.	4B-\	.
.	2c\	2.a/
.	2d\	.
.	.	4f/
=63	=63	=63
0r	2e\	2g/
.	2f\	2a/
.	2g\	2b-\
.	[2c\	2cc\
=64	=64	=64
0r	4c\]	2.c/
.	4d\	.
.	4e\	.
.	4f\	4d/
.	2g\	2.e/
.	2c\	.
.	.	4f/
=65	=65	=65
0r	2.B-\	4g/
.	.	4a/
.	.	2.b-\
.	4c\	.
.	1d	.
.	.	4a/
.	.	4g/
.	.	4f/
=66	=66	=66
0r	2c\	2e/
.	2B-\	4f/
.	.	2g/
.	2c\	.
.	.	4a/
.	2F/	[2f/
=67	=67	=67
0r	1G	4f/]
.	.	8e/L
.	.	8d/J
.	.	2e/
.	1F	1f
=68	=68	=68
0r	2B-\	1r
.	2c\	.
.	1d	2f/
.	.	2g/
=69	=69	=69
0r	2c\	1a
.	2d\	.
.	2e\	2g/
.	2f\	[2a/
=70	=70	=70
0r	1d	4a/]
.	.	4cc\
.	.	4b-\
.	.	4a/
.	2c\	2cc\
.	[2d\	4b-\
.	.	[4a/
=71	=71	=71
0r	4d\]	4a/]
.	4f\	4f/
.	4e\	2g/
.	8d\L	.
.	8e\J	.
.	2f\	2f/
.	4e\	2r
.	[4d\	.
=72	=72	=72
0r	4d\]	2b-\
.	4B-\	.
.	2c\	2a/
.	2B-\	2g/
.	2r	[2b-\
=73	=73	=73
0r	2f\	4b-\]
.	.	4a/
.	2e\	2g/
.	2d\	1f
.	[2f\	.
=74	=74	=74
0r	4f\]	2a/
.	4e\	.
.	2d\	2b-\
.	1c	2a/
.	.	[2cc\
=75	=75	=75
0r	2e\	2cc\]
.	2f\	2a/
.	2e\	1g
.	[2g\	.
=76	=76	=76
0r	2g\]	2e/
.	2d\	2f/
.	1c	2e/
.	.	[2g/
=77	=77	=77
0r	2B-\	2g/]
.	2c\	2e/
.	2d\	1d
.	2G/	.
=78	=78	=78
0r	2r	2A/
.	2G/	2B-/
.	2.A/	2A/
.	.	[2c/
.	4G/	.
=79	=79	=79
0r	2E/	2c/]
.	2F/	2A/
.	2G/	1G
.	[2B-\	.
=80	=80	=80
0r	4B-\]	1g
.	4A/	.
.	2G/	.
.	2F/	2a/
.	[2c\	4g/
.	.	[4e/
=81	=81	=81
0r	4c\]	4e/]
.	2e\	2c/
.	2g\	8B-/L
.	.	8A/J
.	.	4G/
.	4e\	4c/
.	2d\	4d/
.	.	4Bni/
=82	=82	=82
0r	1c	1c
.	1d	2r
.	.	2f/
=83	=83	=83
1C	1c	2e/
.	.	2.c/
1D	2r	.
.	.	4Bni/
.	2f\	2Bni/
=84	=84	=84
1C	2e\	2c/
.	1c	2.e/
2r	.	.
.	.	4f/
[2C/	2B-\	[2g/
=85	=85	=85
2C/]	1A	2g/]
2D\	.	2f/
1E	1G	1g
=86	=86	=86
1C	2r	2a/
.	2A/	2cc\
1E	2G/	2b-\
.	[2c\	2g/
=87	=87	=87
1D	2c\]	2a/
.	2B-\	2f/
1C	2c\	2e/
.	2A/	[2f/
=88	=88	=88
2r	1G	2f/]
2C/	.	2e/
2D\	2F/	2f/
2E\	[2c\	2g/
=89	=89	=89
1F	2c\]	1a
.	2d\	.
1C	1e	1g
=90	=90	=90
2.F\	2d\	1a
.	2c\	.
4E\	.	.
1D	2r	2r
.	2f\	[2a/
=91	=91	=91
1C	2e\	2a/]
.	2c\	2.g/
1r	1B-	.
.	.	8f/L
.	.	8e/J
.	.	2d/
=92	=92	=92
1C	1c	2c/
.	.	2e/
2D\	2r	2f/
2E\	2G/	[2g/
=93	=93	=93
2F\	2A/	4g/]
.	.	4f/
2G\	2B-\	2d/
2C/	2.c\	1e
[2G\	.	.
.	4B-\	.
=94	=94	=94
2G\]	2G/	1d
2F\	2A/	.
1E	2B-\	2r
.	2c\	2g/
=95	=95	=95
1D	1F	2a/
.	.	2f/
1C	2G/	2.e/
.	2A/	.
.	.	4f/
=96	=96	=96
2r	2B-\	2g/
2C/	2c\	2a/
2D\	2r	2b-\
2E\	2c\	[2cc\
=97	=97	=97
2F\	1d	4cc\]
.	.	4a/
2G\	.	2b-\
2A\	[1c	2cc\
4G\	.	4b-\
[4F\	.	[4a/
=98	=98	=98
4F\]	1c]	4a/]
8E\L	.	8g/L
8D\J	.	8f/J
2C/	.	1e
2r	1c	.
2A\	.	2c/
=99	=99	=99
2G\	1r	1d
1F	.	.
.	1c	2r
2E\	.	2c/
=100	=100	=100
1D	1B-	2d/
.	.	2f/
1C	1c	1e
=101	=101	=101
2r	2A/	2f/
1C	2G/	2g/
.	2c\	2e/
2D\	2F/	2f/
=102	=102	=102
2E\	2G/	4e/
.	.	4d/
1F	2A/	2c/
.	2.B-\	2d/
2G\	.	2e/
.	8A/L	.
.	8G/J	.
=103	=103	=103
2A\	1F	2f/
2D\	.	2a/
4E\	2.G/	2g/
4D\	.	.
4C/	.	[2cc\
4BB-/	4E/	.
=104	=104	=104
2AA/	1F	2cc\]
2.BB-/	.	2f/
.	2D/	2g/
4AA/	.	.
2GG/	2E/	2b-\
=105	=105	=105
2FF/	2F/	2.a/
1C	2G/	.
.	.	4g/
.	2A/	2e/
2D\	2B-\	2d/
=106	=106	=106
2E\	2c\	2c/
2F\	2F/	1f
1C	1G	.
.	.	2e/
=107	=107	=107
0FFl	0Fl	0fl
==	==	==
*-	*-	*-
!!!RDF**kern: l=long note in original notation
!!!RDF**kern: i=editorial accidental
!!!RDF**kern: V=start of tuplet marker
!!!RDF**kern: Z=end of tuplet marker
!!!ENC:	Chris Gage 08-06-2012
!!!END:	2012/08/09/
!!!EED:	Jesse Rodin
!!!EEV:	2012/08/13/
!!!ONB:	Translated from MusicXML and edited on 2012/08/13/ by Craig Sapp
!!muse2ps: T^@{OPR}^u^@{ONM}{. }@{OTL}^C^@{COM}^i2I150v85,85,150Q16
